X: 219
T: Yengyeng guohe
%%abc-version 2.0
%%abcx-abcm2ps-target-version 5.9.1 (29 Sep 2008)
%%abc-creator hum2abc beta
%%abcx-conversion-date 2013/10/02 07:52:29
%%abc-edited-by Helmut Schaffrath
%%humdrum-veritas 2744757960
%%humdrum-veritas-data 720987898
%%continueall 1
%%barnumbers 0
L: 1/16
M: 3/4
K: F
c2 d c B2 c2- [I:setbarnb 1]| 
c2 d f d2 d cG4 | 
[M:2/4]c2 d c B2 c2- | 
[M:3/4]c2 d f d2 d cG4 | 
[M:2/4]c2 c c f2 f d | 
[M:3/4]c c c fc8 | 
[M:2/4]G A G F e z F z | 
F Gc4B A | 
A GC6 |]  



